brandFactory_export/1.Light/Ecológico_1Light.svg

<?xml version="1.0" encoding="UTF-8"?>
<svg width="24px" height="24px" viewBox="0 0 24 24" version="1.1" xmlns="http://www.w3.org/2000/svg" xmlns:xlink="http://www.w3.org/1999/xlink">
    <title>1.Light/Ecológico_1Light</title>
    <g id="Symbols" stroke="none" stroke-width="1" fill="none" fill-rule="evenodd">
        <g id="1.Light/Ecológico_1Light" fill="#5CB615" fill-rule="nonzero">
            <path d="M11.4218487,22.9983193 L11.4133613,22.9958908 L11.4041306,22.9950756 C11.3948307,22.993154 11.3856614,22.9908254 11.3766447,22.9881059 L11.4218487,22.9983193 C11.3980492,22.9946579 11.3753091,22.9884413 11.3538575,22.9799922 C11.3392569,22.9746447 11.3250501,22.9679087 11.3114326,22.960184 C11.3074679,22.9571532 11.3035409,22.954753 11.2996759,22.952272 C11.2244085,22.9060855 11.1691455,22.8279734 11.1529412,22.7327731 C11.0890756,22.3428571 11.0554622,21.7445378 11.0117647,20.9882353 C10.9042017,19.0554622 10.7394958,16.1344538 9.89243697,13.4285714 C9.64846708,12.6490178 9.36193907,11.935911 9.03344163,11.2900361 L9.09579832,11.2336134 C8.20840336,12.0907563 6.91428571,12.5243697 5.25042017,12.5243697 C3.58655462,12.5243697 2.28907563,12.087395 1.39831933,11.2302521 C0.537639669,10.4038749 0.073304159,9.19851167 0.010680659,7.64636961 C0.00605363792,7.62232279 0.00336134407,7.59805255 0.00336134407,7.57310924 L0.00336134407,3.72436975 C0.00672268861,2.79327731 0.766386554,2.0302521 1.69747899,2.02689076 L5.25136134,2.02689076 L5.55469242,2.03200827 C7.07111344,2.08316702 8.26071429,2.51764706 9.09579832,3.32436975 C10.0201681,4.21848739 10.4907563,5.54621849 10.4907563,7.28067227 C10.4907563,8.74248366 10.1575832,9.91906048 9.495285,10.7861139 C11.1144675,13.8317158 11.4558543,17.6884512 11.6107294,20.2607165 C11.9144069,18.9041309 12.3798073,17.1989871 13.0756303,15.5327731 C13.3390685,14.9025875 13.620367,14.315564 13.9183821,13.77399 C13.3876649,12.9437726 13.1193277,11.8647764 13.1193277,10.5579832 C13.1193277,8.8302521 13.5865546,7.50588235 14.507563,6.61512605 C15.394958,5.75798319 16.6890756,5.32436975 18.3495798,5.32436975 L21.902521,5.32436975 C22.8268908,5.32773109 23.5831933,6.08067227 23.5831933,7.00504202 L23.5831933,10.8537815 C23.5837769,10.883546 23.5800033,10.9123986 23.572453,10.9397585 C23.5070909,12.4821322 23.0431984,13.6767144 22.1882353,14.497479 C21.3042017,15.3546218 20.0134454,15.7882353 18.3495798,15.7882353 C16.6890756,15.7882353 15.394958,15.3546218 14.507563,14.497479 C14.4492431,14.4412875 14.3927427,14.3833305 14.3380652,14.323619 C12.9319917,17.0016194 12.1765533,20.3296187 11.7848739,22.7327731 C11.7627626,22.8780762 11.6397259,22.9877587 11.4994488,23.0004515 L11.5193277,22.994958 C11.5093682,22.9974479 11.4957199,22.9999378 11.4824815,23.0010614 C11.4796888,23.0016118 11.4759829,23.0016807 11.4722689,23.0016807 C11.4554622,23.0016807 11.4386555,23.0016807 11.4218487,22.9983193 Z M21.9058824,5.95630252 L18.3495798,5.95630252 C15.297479,5.95630252 13.7512605,7.50252101 13.7512605,10.5579832 C13.7512605,11.5951492 13.9298145,12.4584191 14.2853397,13.1462101 C14.6591923,12.5375662 15.0566663,11.9980307 15.4756303,11.5294118 C16.5915966,10.2789916 17.8722689,9.51596639 19.2840336,9.2605042 C19.4588235,9.2302521 19.6235294,9.34453782 19.6537815,9.51596639 C19.6840336,9.6907563 19.5697479,9.85546218 19.3983193,9.88571429 C17.3463187,10.2593122 15.8105891,11.7735628 14.6645355,13.7329123 C15.4249064,14.679761 16.6551881,15.1563025 18.3495798,15.1563025 C21.4016807,15.1563025 22.9478992,13.610084 22.9478992,10.5579832 L22.9543613,10.4938908 L22.9546218,7.00504202 C22.9512605,6.4302521 22.4806723,5.95966387 21.9058824,5.95630252 Z M5.24705882,2.69243697 L1.69747899,2.69243697 C1.13277311,2.69579832 0.668907563,3.15966387 0.668907563,3.72436975 L0.668907563,7.27731092 L0.668907563,7.27731092 C0.668907563,10.3159664 2.20840336,11.8588235 5.24705882,11.8588235 C6.78262364,11.8588235 7.93534497,11.4648209 8.70001739,10.6828887 C7.7157779,9.01580366 6.41160172,7.86642026 4.8,7.25042017 C4.63529412,7.18655462 4.5512605,7.00168067 4.61512605,6.83697479 C4.6789916,6.67226891 4.86386555,6.58823529 5.02857143,6.65210084 C6.86787126,7.35496499 8.18197371,8.61776095 9.12627093,10.1423387 C9.59182993,9.41676986 9.82521008,8.4604183 9.82521008,7.27731092 C9.82521008,4.23529412 8.28571429,2.69243697 5.24705882,2.69243697 Z" id="Ecológico_1Light"></path>
        </g>
    </g>
</svg>

<svg width="24" height="24" viewBox="0 0 24 24" xmlns="http://www.w3.org/2000/svg"><path d="M11.422 22.998l-.009-.002h-.009a.318.318 0 01-.027-.008l.045.01a.317.317 0 01-.11-.038l-.012-.008a.319.319 0 01-.147-.22c-.064-.39-.098-.987-.141-1.744-.108-1.933-.273-4.854-1.12-7.56-.244-.779-.53-1.492-.859-2.138l.063-.056c-.888.857-2.182 1.29-3.846 1.29-1.663 0-2.96-.437-3.852-1.294C.538 10.404.073 9.2.011 7.646a.386.386 0 01-.008-.073V3.724a1.707 1.707 0 011.694-1.697h3.554l.304.005c1.516.051 2.706.486 3.54 1.292.925.894 1.396 2.222 1.396 3.957 0 1.461-.333 2.638-.996 3.505 1.62 3.046 1.96 6.902 2.116 9.475.303-1.357.769-3.062 1.465-4.728.263-.63.544-1.217.842-1.759-.53-.83-.799-1.91-.799-3.216 0-1.728.468-3.052 1.389-3.943.887-.857 2.181-1.29 3.842-1.29h3.553c.924.003 1.68.756 1.68 1.68v3.849a.3.3 0 01-.01.086c-.066 1.542-.53 2.737-1.385 3.557-.884.858-2.175 1.291-3.838 1.291-1.66 0-2.955-.433-3.842-1.29a3.88 3.88 0 01-.17-.174c-1.406 2.678-2.161 6.006-2.553 8.409a.32.32 0 01-.286.267l.02-.005a.246.246 0 01-.047.007c-.017 0-.033 0-.05-.004zM21.906 5.956H18.35c-3.053 0-4.599 1.547-4.599 4.602 0 1.037.179 1.9.534 2.588a11.27 11.27 0 011.19-1.617c1.117-1.25 2.397-2.013 3.809-2.268a.318.318 0 01.114.625c-2.052.373-3.587 1.888-4.733 3.847.76.947 1.99 1.423 3.685 1.423 3.052 0 4.598-1.546 4.598-4.598l.006-.064V7.005a1.059 1.059 0 00-1.048-1.049zM5.247 2.692h-3.55A1.038 1.038 0 00.67 3.724v3.553c0 3.039 1.54 4.582 4.578 4.582 1.536 0 2.688-.394 3.453-1.176-.984-1.667-2.288-2.817-3.9-3.433a.32.32 0 01.229-.598c1.839.703 3.153 1.966 4.097 3.49.466-.725.7-1.682.7-2.865 0-3.042-1.54-4.585-4.579-4.585z" fill="#5CB615" fill-rule="nonzero"/></svg>
